X:1
T:Title
%%score [ ( 1 2 ) ( 3 4 ) ]
L:1/8
Q:1/4=120
M:3/4
K:Bb
V:1 treble nm="Midi_74" snm=" "
V:2 treble 
V:3 bass nm="Midi_74"
V:4 bass 
V:1
"^Isaac Watts\n(1674-1748)" B4 B2 | (B2 A2) B2 |"^Christ the Lord is risen" (c4 d2) | B4 F2 | %4
w: Christ the|Lord * is|ri *|sen! Now|
w: ||||
w: Christ the|Lord * is|ri *|sen! Re-|
 B4 B2 | (B2"^German,\narr. Geoffrey Shaw\n(1879-1943)" A2) G2 |[M:3/4] F4 E2 | D4 F2 | B4 B2 | %9
w: is the|hour * of|dark- ness|past; Christ|hath as-|
w: |||||
w: joice, ye|heav'ns! * let|ev- 'ry|star shine|with new|
 (B2 A2) B2 | c4 d2 | c4 d2 | e4 d2 | c4 B2 | A4 B2 | c4 d2 | e4 d2 | c4 B2 | (A2 B2) G2 | F4 F2 | %20
w: sumed * his|reign- ing|power. Be-|hold the|great ac-|cu- ser|cast down|from the|skies, to|rise * no|more: *|
w: |||||||||||
w: glo * ries|round the|sky! Saints,|while ye|sing the|heav'n- ly|war, raise|your Re-|deem- er's|name * on|high: *|
 (B2 A2) B2 | c4 e2 | (d2 e2) c2 | B6 |] %24
w: ||||
w: ||||
w: ||||
V:2
 (F2 E2) D2 | E4 F2 | (G2 B2 A2) | B4 F2 | (B,2 C2) D2 | (E2 F2) E2 |[M:3/4] D4 C2 | B,4 F2 | %8
w: ||||||||
w: Christ * the|Lord is|ri * *|sen! 'Twas|by * thy|blood, * im-|mor- tal|Lamb, Thine|
 (F2 E2) D2 | E4 F2 | F4 A2 | (G2 A2) =B2 | (c2 !courtesy!_B2) A2 | (G2 A2) G2 | (G2 F2) =E2 | %15
w: |||||||
w: ar * mies|trod the|temp- ter|down; * 'Twas|by * thy|word * and|pow'r * ful|
 F4 F2 | (!courtesy!_E2 G2) F2 | E4 D2 | (=E2 D2) E2 | F4 !courtesy!_E2 | (D2 E2) F2 | (G2 A2) B2 | %22
w: |||||||
w: name they|gained * the|bat- tle|and * re-|nown: Al-|le * lu-|ia, * al-|
 (B2 G2) A2 | B6 |] %24
w: ||
w: le * lu-|ia.|
V:3
 (D2 E2) F2 | E4 D2 | (C4 F2) | D4 C2 | (D2 C2) B,2 | (G,2 F,2) G,2 |[M:3/4] (A,2 G,2) A,2 | %7
 B,4 F,2 | (D2 E2) F2 | E4 D2 | (C2 B,2) A,2 | C4 F2 | E4 F2 | E4 D2 | D4 B,2 | (B,2 A,2) F,2 | %16
 (G,2 E,2) F,2 |"^This edition  Andrew Sims 2016" (G,2 A,2) B,2 | C4 B,2 | A,4 F,2 | (F2 E2) D2 | %21
 C4 B,2 | F4 E2 | D6 |] %24
V:4
 (B,2 C2) D2 | C4 B,2 | (E,4 F,2) | B,,4 A,,2 | (G,,2 A,,2) B,,2 | (C,2 D,2) E,2 |[M:3/4] F,4 F,2 | %7
 B,,4 F,2 | (B,2 C2) D2 | C4 B,2 | (A,2 G,2) F,2 | (=E,2 F,2) D,2 | C,4 D,2 | (E,2 F,2) G,2 | %14
 D,4 G,2 | F,4 D,2 | C,4 D,2 | (E,2 F,2) G,2 | C4 C,2 | F,4 F,2 | (B,,2 C,2) D,2 | (E,2 F,2) G,2 | %22
 F,4 F,2 | [B,,F,]6 |] %24

